Numix-Light/16/status/indicator-keyboard-Ko.svg

<?xml version="1.0" encoding="UTF-8" standalone="no"?>
<svg
   xmlns:dc="http://purl.org/dc/elements/1.1/"
   xmlns:cc="http://creativecommons.org/ns#"
   xmlns:rdf="http://www.w3.org/1999/02/22-rdf-syntax-ns#"
   xmlns:svg="http://www.w3.org/2000/svg"
   xmlns="http://www.w3.org/2000/svg"
   xmlns:sodipodi="http://sodipodi.sourceforge.net/DTD/sodipodi-0.dtd"
   xmlns:inkscape="http://www.inkscape.org/namespaces/inkscape"
   viewBox="0 0 16 16"
   id="svg2"
   version="1.1"
   inkscape:version="0.91 r13725"
   sodipodi:docname="indicator-keyboard-Ko.svg">
  <metadata
     id="metadata13">
    <rdf:RDF>
      <cc:Work
         rdf:about="">
        <dc:format>image/svg+xml</dc:format>
        <dc:type
           rdf:resource="http://purl.org/dc/dcmitype/StillImage" />
      </cc:Work>
    </rdf:RDF>
  </metadata>
  <defs
     id="defs11" />
  <sodipodi:namedview
     pagecolor="#ffffff"
     bordercolor="#666666"
     borderopacity="1"
     objecttolerance="10"
     gridtolerance="10"
     guidetolerance="10"
     inkscape:pageopacity="0"
     inkscape:pageshadow="2"
     inkscape:window-width="640"
     inkscape:window-height="480"
     id="namedview9"
     showgrid="false"
     inkscape:zoom="14.75"
     inkscape:cx="8"
     inkscape:cy="8"
     inkscape:window-x="65"
     inkscape:window-y="24"
     inkscape:window-maximized="0"
     inkscape:current-layer="svg2" />
  <path
     style="fill:#353535;fill-opacity:1"
     d="M 1.5996094 0 C 0.71320937 2.9605947e-16 0 0.71320937 0 1.5996094 L 0 14.400391 C 2.9605947e-16 15.286791 0.71320937 16 1.5996094 16 L 14.400391 16 C 15.286791 16 16 15.286791 16 14.400391 L 16 1.5996094 C 16 0.71320937 15.286791 0 14.400391 0 L 1.5996094 0 z M 3.3789062 4.828125 L 3.9902344 4.828125 L 3.9902344 7.734375 C 4.2182344 7.530375 4.4720469 7.2972031 4.7480469 7.0332031 C 5.0300469 6.7632031 5.3061719 6.4926563 5.5761719 6.2226562 C 5.8521719 5.9526563 6.1096094 5.6952187 6.3496094 5.4492188 C 6.5896094 5.2032188 6.7817813 4.996125 6.9257812 4.828125 L 7.6640625 4.828125 C 7.4900625 5.014125 7.2792031 5.2361406 7.0332031 5.4941406 C 6.7872031 5.7461406 6.526 6.0073437 6.25 6.2773438 C 5.974 6.5473438 5.697875 6.814125 5.421875 7.078125 C 5.151875 7.336125 4.9093594 7.5637188 4.6933594 7.7617188 C 4.8673594 7.8697187 5.0539531 8.0040156 5.2519531 8.1660156 C 5.4559531 8.3220156 5.6592813 8.4974531 5.8632812 8.6894531 C 6.0732812 8.8754531 6.2766094 9.0732031 6.4746094 9.2832031 C 6.6786094 9.4872031 6.8689687 9.6942969 7.0429688 9.9042969 C 7.2229687 10.114297 7.3815312 10.317625 7.5195312 10.515625 C 7.6635313 10.713625 7.7810937 10.896453 7.8710938 11.064453 L 7.1855469 11.064453 C 6.9815469 10.752453 6.7521406 10.442719 6.4941406 10.136719 C 6.2421406 9.8307187 5.9734062 9.5434375 5.6914062 9.2734375 C 5.4094062 9.0034375 5.122125 8.7571563 4.828125 8.5351562 C 4.540125 8.3131562 4.2602344 8.1265625 3.9902344 7.9765625 L 3.9902344 11.064453 L 3.3789062 11.064453 L 3.3789062 4.828125 z M 10.496094 6.3027344 C 10.808094 6.3027344 11.093562 6.364375 11.351562 6.484375 C 11.609562 6.598375 11.831578 6.7625156 12.017578 6.9785156 C 12.209578 7.1885156 12.356984 7.4441406 12.458984 7.7441406 C 12.566984 8.0441406 12.621094 8.3761875 12.621094 8.7421875 C 12.621094 9.1081875 12.566984 9.4421875 12.458984 9.7421875 C 12.356984 10.042188 12.209578 10.295859 12.017578 10.505859 C 11.831578 10.715859 11.609562 10.881953 11.351562 11.001953 C 11.093562 11.115953 10.808094 11.171875 10.496094 11.171875 C 10.184094 11.171875 9.9005784 11.115953 9.6425781 11.001953 C 9.3845781 10.881953 9.1587969 10.715859 8.9667969 10.505859 C 8.7807969 10.295859 8.6333906 10.042188 8.5253906 9.7421875 C 8.4233906 9.4421875 8.3730469 9.1081875 8.3730469 8.7421875 C 8.3730469 8.3761875 8.4233906 8.0441406 8.5253906 7.7441406 C 8.6333906 7.4441406 8.7807969 7.1885156 8.9667969 6.9785156 C 9.1587969 6.7625156 9.3845781 6.598375 9.6425781 6.484375 C 9.9005784 6.364375 10.184094 6.3027344 10.496094 6.3027344 z M 10.496094 6.8339844 C 10.034093 6.8339844 9.6684375 7.0094219 9.3984375 7.3574219 C 9.1284375 7.6994219 8.9941406 8.1601875 8.9941406 8.7421875 C 8.9941406 9.3241875 9.1284375 9.7869062 9.3984375 10.128906 C 9.6684375 10.470906 10.034093 10.640625 10.496094 10.640625 C 10.958094 10.640625 11.325703 10.470906 11.595703 10.128906 C 11.865703 9.7869062 12 9.3241875 12 8.7421875 C 12 8.1601875 11.865703 7.6994219 11.595703 7.3574219 C 11.325703 7.0094219 10.958094 6.8339844 10.496094 6.8339844 z "
     id="path4" />
</svg>

<svg xmlns="http://www.w3.org/2000/svg" viewBox="0 0 16 16">
 <path d="m 1.6 0 c -0.886 0 -1.6 0.713 -1.6 1.6 l 0 12.801 c 0 0.886 0.713 1.6 1.6 1.6 l 12.801 0 c 0.886 0 1.6 -0.713 1.6 -1.6 l 0 -12.801 c 0 -0.886 -0.713 -1.6 -1.6 -1.6 l -12.801 0 z m 1.779 4.828 l 0.611 0 l 0 2.906 c 0.228 -0.204 0.482 -0.437 0.758 -0.701 c 0.282 -0.27 0.558 -0.541 0.828 -0.811 c 0.276 -0.27 0.533 -0.527 0.773 -0.773 c 0.24 -0.246 0.432 -0.453 0.576 -0.621 l 0.738 0 c -0.174 0.186 -0.385 0.408 -0.631 0.666 c -0.246 0.252 -0.507 0.513 -0.783 0.783 c -0.276 0.27 -0.552 0.537 -0.828 0.801 c -0.27 0.258 -0.513 0.486 -0.729 0.684 c 0.174 0.108 0.361 0.242 0.559 0.404 c 0.204 0.156 0.407 0.331 0.611 0.523 c 0.21 0.186 0.413 0.384 0.611 0.594 c 0.204 0.204 0.394 0.411 0.568 0.621 c 0.18 0.21 0.339 0.413 0.477 0.611 c 0.144 0.198 0.262 0.381 0.352 0.549 l -0.686 0 c -0.204 -0.312 -0.433 -0.622 -0.691 -0.928 c -0.252 -0.306 -0.521 -0.593 -0.803 -0.863 c -0.282 -0.27 -0.569 -0.516 -0.863 -0.738 c -0.288 -0.222 -0.568 -0.409 -0.838 -0.559 l 0 3.088 l -0.611 0 l 0 -6.236 z m 7.117 1.475 c 0.312 0 0.597 0.062 0.855 0.182 c 0.258 0.114 0.48 0.278 0.666 0.494 c 0.192 0.21 0.339 0.466 0.441 0.766 c 0.108 0.3 0.162 0.632 0.162 0.998 c 0 0.366 -0.054 0.7 -0.162 1 c -0.102 0.3 -0.249 0.554 -0.441 0.764 c -0.186 0.21 -0.408 0.376 -0.666 0.496 c -0.258 0.114 -0.543 0.17 -0.855 0.17 c -0.312 0 -0.596 -0.056 -0.854 -0.17 c -0.258 -0.12 -0.484 -0.286 -0.676 -0.496 c -0.186 -0.21 -0.333 -0.464 -0.441 -0.764 c -0.102 -0.3 -0.152 -0.634 -0.152 -1 c 0 -0.366 0.05 -0.698 0.152 -0.998 c 0.108 -0.3 0.255 -0.556 0.441 -0.766 c 0.192 -0.216 0.418 -0.38 0.676 -0.494 c 0.258 -0.12 0.542 -0.182 0.854 -0.182 z m 0 0.531 c -0.462 0 -0.828 0.175 -1.098 0.523 c -0.27 0.342 -0.404 0.803 -0.404 1.385 c 0 0.582 0.134 1.045 0.404 1.387 c 0.27 0.342 0.636 0.512 1.098 0.512 c 0.462 0 0.83 -0.17 1.1 -0.512 c 0.27 -0.342 0.404 -0.805 0.404 -1.387 c 0 -0.582 -0.134 -1.043 -0.404 -1.385 c -0.27 -0.348 -0.638 -0.523 -1.1 -0.523 z" style="fill:#353535;fill-opacity:1"/>
</svg>
